!!!OTL: Sarika Keo
!!!XEN: Sarika Keo
!! From Sam-Ang Sam & Patricia Shehan Campbell,
!! "Silent Temples, Songful Hearts: Traditional Music of Cambodia"
!! Danbury CT: World Music Press, 1991
!! page 77
!! Genre: ??
**kern	**silbe	**silbe
*clefG2	*LKhmer	*LKhmer
*k[f#]	*verse1	*verse2
*M4/4	*	*
*	*VCgirls	*VCgirls
=1-	=1-	=1-
2r	.	.
8r	.	.
{16B	Sa-	Slap
16B	-ri-	|
8d	-ka	vea
8e	keo	chakk
=2	=2	=2
4g}	euy	kbach
{(8a	si	moat
8b)	|	|
4d	ey	vea
(8b	kang	thveu
8a)	|	|
=3	=3	=3
8g}	kang?	phleng.
*	*VCboys	*VCboys
*	*Lvocables	*Lvocables
{8e	Ey	Ey
8.g	sa-	sa-
16g	-ri-	-ri-
8g	-yaing	-yaing
16B	sa-	sa-
16B	-ri-	-ri-
8d	-ka	-ka
8e	keo	keo
=4	=4	=4
4g	euy	euy
(8a	si	si
8b)	|	|
4d	ey	ey
(8b	kang	kang
8a)	|	|
=5	=5	=5
8g	kang	kang
8e	ey	ey
8.g	sa-	sa-
16g	-ri-	-ri-
8g}	-yaing	-yaing
*	*LKhmer	*LKhmer
*	*VCgirls	*VCgirls
{8a	Si	Pra-
8a	phle	-choeuk
8b	dam-	knea
=6	=6	=6
(4a	-bang	leng
8b)}	|	|
{8d	pra-	leu
(8e	-choeuk	mek
8a)	|	|
(8f	knea	proeuk-
8e)	|	|
=7	=7	=7
4d}	leng	sa.
*	*Lvocables	*Lvocables
*	*VCboys	*VCboys
{4g	Euy	Euy
4d	keo	keo
(8.e	keo	keo
16g)	|	|
=8	=8	=8
4g}	euy,	euy,
{4g	Euy	Euy
4d	keo	keo
(8.e	keo	keo
16g)	|	|
=9	=9	=9
[2g	euy.	euy.
8g]}	|	|
==	==	==
*-	*-	*-
